public/avatar/body/54.svg

<svg xmlns:xlink="http://www.w3.org/1999/xlink" height="82" width="84.85" xmlns="http://www.w3.org/2000/svg"><g transform="translate(37.4 42.25)"><use height="38" transform="translate(-11.95 -17.45)" width="32.05" xlink:href="#a"/><use height="38.95" transform="translate(-12.45 -17.95)" width="33.05" xlink:href="#b"/><use height="17.95" transform="translate(-12.45 5.5)" width="34.4" xlink:href="#c"/><use height="17" transform="translate(4.4 .45)" width="19.3" xlink:href="#d"/><use height="17" transform="matrix(-1 0 0 1 4.4 .45)" width="19.3" xlink:href="#d"/></g><defs><use height="38" width="32.05" xlink:href="#e" id="a"/><use height="38.95" width="33.05" xlink:href="#f" id="b"/><use height="17" width="19.3" xlink:href="#g" id="d"/><path d="M27.35 7.4q2.15 4.15 3.55 8.75 1.45 4.7 1.15 9.5-.35 4.95-4.2 8.1-3.8 3.2-8.75 4.05l-2.6.2q-3.6 0-7.05-1.15-4.65-1.6-7.1-5.5Q-.2 27.4.05 23q.2-4.4 2-9.3Q3.85 8.75 7 5.05 10.1 1.3 14.7.1l1.8-.1q1.9.05 3.7.8 4.75 2.05 7.15 6.6" fill="#d6b099" fill-rule="evenodd" transform="translate(-.05)" id="e"/><path d="M27.35 7.4Q24.95 2.85 20.2.8 17.55-.3 14.7.1 10.1 1.3 7 5.05q-3.15 3.7-4.95 8.65-1.8 4.9-2 9.3-.25 4.4 2.3 8.35 2.45 3.9 7.1 5.5 4.65 1.55 9.65.95 4.95-.85 8.75-4.05 3.85-3.15 4.2-8.1.3-4.8-1.15-9.5-1.4-4.6-3.55-8.75Z" fill="none" stroke="#000" stroke-linecap="round" stroke-linejoin="round" transform="translate(.45 .5)" id="f"/><g id="c"><path d="M3.8 22.6q-1.9.1-5.25-1.75l-3.9-2.4q-4.95-2.9-4.95-3.35 0-3.25.75-3 2.85 2 6.7 3.15l9.9.55q2.4-.05 11.4-2.95 1.6 0 .85 1.25-1.2 3.25-3 4.65l-4 .5q-3.95 3.1-8.5 3.35" fill="#d6b370" fill-rule="evenodd" transform="translate(12.45 -5.5)"/><path d="m-10.55 11.1 4.5 3.2Q-.5 17.35 4.6 16.5q8.2-1.4 15.1-4.15" fill="none" stroke="#b28632" stroke-linecap="round" stroke-linejoin="round" transform="translate(12.45 -5.5)"/><path d="m-10.55 14.85 4 3.1 4.85 3.3q2.8 1.7 5.15 1.7 3.5 0 6.5-1.5l2.5-1.7 4-.8q1.85-.35 2.35-4l2.65-4m-9 8.8 4.35-5.8" fill="none" stroke="#b28632" stroke-linecap="round" stroke-linejoin="round" transform="translate(12.45 -5.5)"/><path d="m17.85 11.5-1.25.75-1.4 1-.6.9-1.25 1.1q-.3.35-2.15.75-.1 0-1.1.75-.4.25-.9 1.25-.45.45-3.5.9-1.6.2-1.65 0l.05-.5H1.6l-2.4-.65-1.35-.85-.65-.25-.85-.75q-.75-.75-1.4-.75l-1.85-.5-1.15-1.9-1-.5-1-1.35-.6-1.15-.75-.25q-1.9-.25-.35-2.35l.45-1 1.5-.25q.55 0 2.25.85 2.2 1.1 3.9 3 .6.7 3.1 1.4l4.15.6q2.85 0 7.1-1.6 2-.75 9.15-4.65l-.5 4.5q0 .45-1.5 1.5" fill="#85674e" fill-opacity=".502" fill-rule="evenodd" transform="translate(12.45 -5.5)"/></g><g id="g" fill-rule="evenodd"><path d="m14.1 1.2.4-.15 1.35-1 .45.7 1.35.2-.45.8 1.15.25.9.55.05.1-.85.7.8 1.25-.05.1-.75.3.1.75-2.1 1.45-.25-.7.7-.5-.6-.9.75-1-.4-.2-.45-.05.25-.9q-1.3-.65-2.35-1.75M8.4 13.4h-.95l.35.75-1 .4-.7-.55-.65-1.25 1.3-.05-.35-.8-.1-.9-1.15-1-.4-2.7 1.3-.15.15.7 1.3.55-.6.8.95.25.4.9-.7.15 1.55.95-.55.75.15.75q.05.35-.3.45M2.95 7.65l.4-.25.6-.2-1 .45" fill="#fff54c" transform="translate(0 -.05)"/><path d="M14.1 1.2q1.05 1.1 2.35 1.75l-.25.9.45.05.4.2-.75 1 .6.9-.7.5.25.7-1.85-.1-.65-.5L15 6l-.8-.9.6-.35v-.1l-1-.3.15-1.05-1.45-.8.45-.75V1.2l.75-.35.4.35M6.1 14l-.15.25q-.6.65-1.4.6l.7 1.2-.95.6-.8-.2-.3-.45-.75.85q-.6.55-.85-.3l.55-1.05 1-.6v-.6l-.45-.9-.5-.4.9-.1q.85-.25.9-1.1l-1.35-1.1-.05-.55-1.15-.55-.45.8-.05-.05-.3-1.6.8.25-.15-1.05.8-.55.45.05.4.2 1-.45.35-.1h.1l.35.2.4 2.7 1.15 1 .1.9.35.8-1.3.05L6.1 14m-6 1.65-.1.05.05-.1.05.05" fill="#ffa600" transform="translate(0 -.05)"/><path d="m14.6 7.1.55.65-.75.1-.4-.6-.8-.9.4-.6-.55-.65-.4-.25-.5-.3-.5.15-.2-.85-.7-.5-1.1.5.05-.65.2-.6.15-.25h.75l1-.5.7.65 1.45.8-.15 1.05 1 .3v.1l-.6.35.8.9-1.05.6.65.5" fill="#ff4ad5" transform="translate(0 -.05)"/><path d="M14.4 7.85 13.35 9.3v1.05l-1.45.2-.2-1.95.6-.1v-.75L10.95 5.6l-1.15.5-1.6-1.25-.65.3-1.25.3.35-.6.25-.15.35.05.45.1-.05-.7 2-.3 1.1-.5.7.5.2.85.5-.15.5.3.4.25.55.65-.4.6.8.9.4.6m-3.2 3.35-.2.25-.5.1.7-.35m-9.6 5.35-.85.3-.6-.6-.05-.6-.05-.05-.05.1.05-7.45.6.5.3 1.6v.05H1l.45-.8 1.15.55.05.55L4 11.8q-.05.85-.9 1.1l-.9.1.5.4.45.9v.6l-1 .6-.55 1.05" fill="#f01f1f" transform="translate(0 -.05)"/><path d="m11.9 10.55-.2.45-.5.2-.7.35-.35 1.35-.5-.5-.35-1.55.8-.5.1-.25-.1-.9-.95-.2-.2-1.35-1.55-1-.35-.8-1.25.5-.1-.2.1-.65.5-.05 1.25-.3.65-.3L9.8 6.1l1.15-.5 1.35 2.15v.75l-.6.1.2 1.95" fill="#38c0d9" transform="translate(0 -.05)"/><path d="m9.65 12.4-.2.85-1.05.15q.35-.1.3-.45l-.15-.75.55-.75-1.55-.95.7-.15-.4-.9-.95-.25.6-.8-1.3-.55-.15-.7-1.3.15-.35-.2.4-1.1.9.15.1.2 1.25-.5.35.8 1.55 1L9.15 9l.95.2.1.9-.1.25-.8.5.35 1.55m-6.3-5 .1-.25.85-.05-.35.1-.6.2" fill="#85ffc2" transform="translate(0 -.05)"/></g></defs></svg>

<?xml version="1.0" encoding="UTF-8" standalone="no"?>
<svg xmlns:xlink="http://www.w3.org/1999/xlink" height="82.0px" width="84.85px" xmlns="http://www.w3.org/2000/svg">
  <g transform="matrix(1.0, 0.0, 0.0, 1.0, 37.4, 42.25)">
    <use height="38.0" transform="matrix(1.0, 0.0, 0.0, 1.0, -11.95, -17.45)" width="32.05" xlink:href="#sprite0"/>
    <use height="38.95" transform="matrix(1.0, 0.0, 0.0, 1.0, -12.45, -17.95)" width="33.05" xlink:href="#sprite1"/>
    <use height="17.95" transform="matrix(1.0, 0.0, 0.0, 1.0, -12.45, 5.5)" width="34.4" xlink:href="#shape2"/>
    <use height="17.0" transform="matrix(1.0, 0.0, 0.0, 1.0, 4.4, 0.45)" width="19.3" xlink:href="#sprite2"/>
    <use height="17.0" transform="matrix(-1.0, 0.0, 0.0, 1.0, 4.4, 0.45)" width="19.3" xlink:href="#sprite2"/>
  </g>
  <defs>
    <g id="sprite0" transform="matrix(1.0, 0.0, 0.0, 1.0, -0.05, 0.0)">
      <use height="38.0" transform="matrix(1.0, 0.0, 0.0, 1.0, 0.05, 0.0)" width="32.05" xlink:href="#shape0"/>
    </g>
    <g id="shape0" transform="matrix(1.0, 0.0, 0.0, 1.0, -0.05, 0.0)">
      <path d="M27.35 7.4 Q29.5 11.55 30.9 16.15 32.35 20.85 32.05 25.65 31.7 30.6 27.85 33.75 24.05 36.95 19.1 37.8 L16.5 38.0 Q12.9 38.0 9.45 36.85 4.8 35.25 2.35 31.35 -0.2 27.4 0.05 23.0 0.25 18.6 2.05 13.7 3.85 8.75 7.0 5.05 10.1 1.3 14.7 0.1 L16.5 0.0 Q18.4 0.05 20.2 0.8 24.95 2.85 27.35 7.4" fill="#d6b099" fill-rule="evenodd" stroke="none"/>
    </g>
    <g id="sprite1" transform="matrix(1.0, 0.0, 0.0, 1.0, 0.45, 0.5)">
      <use height="38.95" transform="matrix(1.0, 0.0, 0.0, 1.0, -0.45, -0.5)" width="33.05" xlink:href="#shape1"/>
    </g>
    <g id="shape1" transform="matrix(1.0, 0.0, 0.0, 1.0, 0.45, 0.5)">
      <path d="M27.35 7.4 Q24.95 2.85 20.2 0.8 17.55 -0.3 14.7 0.1 10.1 1.3 7.0 5.05 3.85 8.75 2.05 13.7 0.25 18.6 0.05 23.0 -0.2 27.4 2.35 31.35 4.8 35.25 9.45 36.85 14.1 38.4 19.1 37.8 24.05 36.95 27.85 33.75 31.7 30.6 32.05 25.65 32.35 20.85 30.9 16.15 29.5 11.55 27.35 7.4 Z" fill="none" stroke="#000000" stroke-linecap="round" stroke-linejoin="round" stroke-width="1.0"/>
    </g>
    <g id="shape2" transform="matrix(1.0, 0.0, 0.0, 1.0, 12.45, -5.5)">
      <path d="M3.8 22.6 Q1.9 22.7 -1.45 20.85 L-5.35 18.45 Q-10.3 15.55 -10.3 15.1 -10.3 11.85 -9.55 12.1 -6.7 14.1 -2.85 15.25 L7.05 15.8 Q9.45 15.75 18.45 12.85 20.05 12.85 19.3 14.1 18.1 17.35 16.3 18.75 L12.3 19.25 Q8.35 22.35 3.8 22.6" fill="#d6b370" fill-rule="evenodd" stroke="none"/>
      <path d="M-10.55 11.1 L-6.05 14.3 Q-0.5 17.35 4.6 16.5 12.8 15.1 19.7 12.35" fill="none" stroke="#b28632" stroke-linecap="round" stroke-linejoin="round" stroke-width="1.0"/>
      <path d="M-10.55 14.85 L-6.55 17.95 -1.7 21.25 Q1.1 22.95 3.45 22.95 6.95 22.95 9.95 21.45 L12.45 19.75 16.45 18.95 Q18.3 18.6 18.8 14.95 L21.45 10.95" fill="none" stroke="#b28632" stroke-linecap="round" stroke-linejoin="round" stroke-width="1.0"/>
      <path d="M12.45 19.75 L16.8 13.95" fill="none" stroke="#b28632" stroke-linecap="round" stroke-linejoin="round" stroke-width="1.0"/>
      <path d="M17.85 11.5 L16.6 12.25 15.2 13.25 14.6 14.15 13.35 15.25 Q13.05 15.6 11.2 16.0 11.1 16.0 10.1 16.75 9.7 17.0 9.2 18.0 8.75 18.45 5.7 18.9 4.1 19.1 4.05 18.9 L4.1 18.4 1.6 18.4 -0.8 17.75 -2.15 16.9 -2.8 16.65 -3.65 15.9 Q-4.4 15.15 -5.05 15.15 L-6.9 14.65 -8.05 12.75 -9.05 12.25 -10.05 10.9 -10.65 9.75 -11.4 9.5 Q-13.3 9.25 -11.75 7.15 L-11.3 6.15 -9.8 5.9 Q-9.25 5.9 -7.55 6.75 -5.35 7.85 -3.65 9.75 -3.05 10.45 -0.55 11.15 L3.6 11.75 Q6.45 11.75 10.7 10.15 12.7 9.4 19.85 5.5 L19.35 10.0 Q19.35 10.45 17.85 11.5" fill="#85674e" fill-opacity="0.5019608" fill-rule="evenodd" stroke="none"/>
    </g>
    <g id="sprite2" transform="matrix(1.0, 0.0, 0.0, 1.0, 0.0, -0.05)">
      <use height="17.0" transform="matrix(1.0, 0.0, 0.0, 1.0, 0.0, 0.05)" width="19.3" xlink:href="#shape3"/>
    </g>
    <g id="shape3" transform="matrix(1.0, 0.0, 0.0, 1.0, 0.0, -0.05)">
      <path d="M14.1 1.2 L14.5 1.05 15.85 0.05 16.3 0.75 17.65 0.95 17.2 1.75 18.35 2.0 19.25 2.55 19.3 2.65 18.45 3.35 19.25 4.6 19.2 4.7 18.45 5.0 18.55 5.75 16.45 7.2 16.2 6.5 16.9 6.0 16.3 5.1 17.05 4.1 16.65 3.9 16.2 3.85 16.45 2.95 Q15.15 2.3 14.1 1.2 M8.4 13.4 L7.45 13.4 7.8 14.15 6.8 14.55 6.1 14.0 5.45 12.75 6.75 12.7 6.4 11.9 6.3 11.0 5.15 10.0 4.75 7.3 6.05 7.15 6.2 7.85 7.5 8.4 6.9 9.2 7.85 9.45 8.25 10.35 7.55 10.5 9.1 11.45 8.55 12.2 8.7 12.95 Q8.75 13.3 8.4 13.4 M2.95 7.65 L3.35 7.4 3.95 7.2 2.95 7.65" fill="#fff54c" fill-rule="evenodd" stroke="none"/>
      <path d="M14.1 1.2 Q15.15 2.3 16.45 2.95 L16.2 3.85 16.65 3.9 17.05 4.1 16.3 5.1 16.9 6.0 16.2 6.5 16.45 7.2 14.6 7.1 13.95 6.6 15.0 6.0 14.2 5.1 14.8 4.75 14.8 4.65 13.8 4.35 13.95 3.3 12.5 2.5 12.95 1.75 12.95 1.2 13.7 0.85 14.1 1.2 M6.1 14.0 L5.95 14.25 Q5.35 14.9 4.55 14.85 L5.25 16.05 4.3 16.65 3.5 16.45 3.2 16.0 2.45 16.85 Q1.85 17.4 1.6 16.55 L2.15 15.5 3.15 14.9 3.15 14.3 2.7 13.4 2.2 13.0 3.1 12.9 Q3.95 12.65 4.0 11.8 L2.65 10.7 2.6 10.15 1.45 9.6 1.0 10.4 0.95 10.35 0.65 8.75 1.45 9.0 1.3 7.95 2.1 7.4 2.55 7.45 2.95 7.65 3.95 7.2 4.3 7.1 4.4 7.1 4.75 7.3 5.15 10.0 6.3 11.0 6.4 11.9 6.75 12.7 5.45 12.75 6.1 14.0 M0.1 15.65 L0.0 15.7 0.05 15.6 0.1 15.65" fill="#ffa600" fill-rule="evenodd" stroke="none"/>
      <path d="M14.6 7.1 L15.15 7.75 14.4 7.85 14.0 7.25 13.2 6.35 13.6 5.75 13.05 5.1 12.65 4.85 12.15 4.55 11.65 4.7 11.45 3.85 10.75 3.35 9.65 3.85 9.7 3.2 9.9 2.6 10.05 2.35 10.8 2.35 11.8 1.85 12.5 2.5 13.95 3.3 13.8 4.35 14.8 4.65 14.8 4.75 14.2 5.1 15.0 6.0 13.95 6.6 14.6 7.1" fill="#ff4ad5" fill-rule="evenodd" stroke="none"/>
      <path d="M14.4 7.85 L13.35 9.3 13.35 10.35 11.9 10.55 11.7 8.6 12.3 8.5 12.3 7.75 10.95 5.6 9.8 6.1 8.2 4.85 7.55 5.15 6.3 5.45 6.65 4.85 6.9 4.7 7.25 4.75 7.7 4.85 7.65 4.15 9.65 3.85 10.75 3.35 11.45 3.85 11.65 4.7 12.15 4.55 12.65 4.85 13.05 5.1 13.6 5.75 13.2 6.35 14.0 7.25 14.4 7.85 M11.2 11.2 L11.0 11.45 10.5 11.55 11.2 11.2 M1.6 16.55 L0.75 16.85 0.15 16.25 0.1 15.65 0.05 15.6 0.0 15.7 0.05 8.25 0.65 8.75 0.95 10.35 0.95 10.4 1.0 10.4 1.45 9.6 2.6 10.15 2.65 10.7 4.0 11.8 Q3.95 12.65 3.1 12.9 L2.2 13.0 2.7 13.4 3.15 14.3 3.15 14.9 2.15 15.5 1.6 16.55" fill="#f01f1f" fill-rule="evenodd" stroke="none"/>
      <path d="M11.9 10.55 L11.7 11.0 11.2 11.2 10.5 11.55 10.15 12.9 9.65 12.4 9.3 10.85 10.1 10.35 10.2 10.1 10.1 9.2 9.15 9.0 8.95 7.65 7.4 6.65 7.05 5.85 5.8 6.35 5.7 6.15 5.8 5.5 6.3 5.45 7.55 5.15 8.2 4.85 9.8 6.1 10.95 5.6 12.3 7.75 12.3 8.5 11.7 8.6 11.9 10.55" fill="#38c0d9" fill-rule="evenodd" stroke="none"/>
      <path d="M9.65 12.4 L9.45 13.25 8.4 13.4 Q8.75 13.3 8.7 12.95 L8.55 12.2 9.1 11.45 7.55 10.5 8.25 10.35 7.85 9.45 6.9 9.2 7.5 8.4 6.2 7.85 6.05 7.15 4.75 7.3 4.4 7.1 4.8 6.0 5.7 6.15 5.8 6.35 7.05 5.85 7.4 6.65 8.95 7.65 9.15 9.0 10.1 9.2 10.2 10.1 10.1 10.35 9.3 10.85 9.65 12.4 M3.35 7.4 L3.45 7.15 4.3 7.1 3.95 7.2 3.35 7.4" fill="#85ffc2" fill-rule="evenodd" stroke="none"/>
    </g>
  </defs>
</svg>
